src/images/icons/blog.svg

<svg xmlns="http://www.w3.org/2000/svg" width="24" height="24"><path id="outline" d="M17 2l5 5L7 22H2v-5z"/><path id="fill" d="M13.5 8.5L4 18v2h2l9.5-9.5zM17 5l-2 2 2 2 2-2z"/></svg>

<svg xmlns="http://www.w3.org/2000/svg" width="24" height="24" viewBox="0 0 24 24"><path id="outline" d="M17,2 L22,7 L7,22 L2,22 L2,17 L17,2 Z M13.5,8.5 L4,18 L4,20 L6,20 L15.5,10.5 L13.5,8.5 Z M17,5 L15,7 L17,9 L19,7 L17,5 Z"/><polygon id="fill" points="17 5 15 7 17 9 19 7"/><polygon id="fill" points="13.5 8.5 4 18 4 20 6 20 15.5 10.5"/></svg>
